public/flags/SG.svg

<svg fill="none" height="53" viewBox="0 0 61 53" width="61" xmlns="http://www.w3.org/2000/svg" xmlns:xlink="http://www.w3.org/1999/xlink"><mask id="a" height="43" maskUnits="userSpaceOnUse" width="59" x="1" y="3"><rect fill="#fff" height="41.4393" rx="3.7125" stroke="#fff" stroke-width="1.06071" width="57.9393" x="1.53036" y="3.53036"/></mask><rect fill="#fff" height="41.4393" rx="3.7125" stroke="#f5f5f5" stroke-width="1.06071" width="57.9393" x="1.53036" y="3.53036"/><g clip-rule="evenodd" fill-rule="evenodd" mask="url(#a)"><path d="m1 25.6667h59v-22.6667h-59z" fill="#e12237"/><path d="m15.0477 22.8333c1.9915 0 3.8216-.6965 5.264-1.8611-.764.2873-1.591.4444-2.4544.4444-3.8792 0-7.0238-3.1713-7.0238-7.0833s3.1446-7.08332 7.0238-7.08332c.8634 0 1.6904.1571 2.4544.44449-1.4424-1.16464-3.2725-1.86116-5.264-1.86116-4.655 0-8.42856 3.80558-8.42856 8.49999 0 4.6944 3.77356 8.5 8.42856 8.5zm2.8094-9.9167c0 .7824-.6289 1.4167-1.4047 1.4167-.7759 0-1.4048-.6343-1.4048-1.4167s.6289-1.4166 1.4048-1.4166c.7758 0 1.4047.6342 1.4047 1.4166zm1.4048 7.0833c.7758 0 1.4047-.6342 1.4047-1.4166s-.6289-1.4167-1.4047-1.4167c-.7759 0-1.4048.6343-1.4048 1.4167s.6289 1.4166 1.4048 1.4166zm7.024-1.4166c0 .7824-.629 1.4166-1.4048 1.4166s-1.4048-.6342-1.4048-1.4166.629-1.4167 1.4048-1.4167 1.4048.6343 1.4048 1.4167zm1.4047-4.25c.7758 0 1.4048-.6343 1.4048-1.4167s-.629-1.4166-1.4048-1.4166-1.4048.6342-1.4048 1.4166.629 1.4167 1.4048 1.4167zm-4.2142-5.66665c0 .7824-.629 1.41665-1.4048 1.41665s-1.4048-.63425-1.4048-1.41665c0-.78241.629-1.41667 1.4048-1.41667s1.4048.63426 1.4048 1.41667z" fill="#fff"/></g></svg>

<svg width="61" height="53" viewBox="0 0 61 53" fill="none" xmlns="http://www.w3.org/2000/svg">
<rect x="1.53036" y="3.53036" width="57.9393" height="41.4393" rx="3.7125" fill="white" stroke="#F5F5F5" stroke-width="1.06071"/>
<mask id="mask0" mask-type="alpha" maskUnits="userSpaceOnUse" x="1" y="3" width="59" height="43">
<rect x="1.53036" y="3.53036" width="57.9393" height="41.4393" rx="3.7125" fill="white" stroke="white" stroke-width="1.06071"/>
</mask>
<g mask="url(#mask0)">
<path fill-rule="evenodd" clip-rule="evenodd" d="M1 25.6667H60V3H1V25.6667Z" fill="#E12237"/>
<path fill-rule="evenodd" clip-rule="evenodd" d="M15.0477 22.8333C17.0392 22.8333 18.8693 22.1368 20.3117 20.9722C19.5477 21.2595 18.7207 21.4166 17.8573 21.4166C13.9781 21.4166 10.8335 18.2453 10.8335 14.3333C10.8335 10.4213 13.9781 7.24998 17.8573 7.24998C18.7207 7.24998 19.5477 7.40708 20.3117 7.69447C18.8693 6.52983 17.0392 5.83331 15.0477 5.83331C10.3927 5.83331 6.61914 9.63889 6.61914 14.3333C6.61914 19.0277 10.3927 22.8333 15.0477 22.8333ZM17.8571 12.9166C17.8571 13.699 17.2282 14.3333 16.4524 14.3333C15.6765 14.3333 15.0476 13.699 15.0476 12.9166C15.0476 12.1342 15.6765 11.5 16.4524 11.5C17.2282 11.5 17.8571 12.1342 17.8571 12.9166ZM19.2619 19.9999C20.0377 19.9999 20.6666 19.3657 20.6666 18.5833C20.6666 17.8009 20.0377 17.1666 19.2619 17.1666C18.486 17.1666 17.8571 17.8009 17.8571 18.5833C17.8571 19.3657 18.486 19.9999 19.2619 19.9999ZM26.2859 18.5833C26.2859 19.3657 25.6569 19.9999 24.8811 19.9999C24.1053 19.9999 23.4763 19.3657 23.4763 18.5833C23.4763 17.8009 24.1053 17.1666 24.8811 17.1666C25.6569 17.1666 26.2859 17.8009 26.2859 18.5833ZM27.6906 14.3333C28.4664 14.3333 29.0954 13.699 29.0954 12.9166C29.0954 12.1342 28.4664 11.5 27.6906 11.5C26.9148 11.5 26.2858 12.1342 26.2858 12.9166C26.2858 13.699 26.9148 14.3333 27.6906 14.3333ZM23.4764 8.66665C23.4764 9.44905 22.8474 10.0833 22.0716 10.0833C21.2958 10.0833 20.6668 9.44905 20.6668 8.66665C20.6668 7.88424 21.2958 7.24998 22.0716 7.24998C22.8474 7.24998 23.4764 7.88424 23.4764 8.66665Z" fill="white"/>
</g>
</svg>
